X: 51
T: Praeludia organi op. 5 – Adagio
C: Franciszek Walczyński
%%abc-version 2.0
%%abcx-abcm2ps-target-version 5.9.1 (29 Sep 2008)
%%abc-creator hum2abc beta
%%abcx-conversion-date 2021/10/04 07:38:41
%%abc-edited-by Andrzej Borzym
%%abc-edited-by Krzysztof Stępień
%%abcx-initial-encoding-date 2021-07-26
%%humdrum-veritas 992427431
%%humdrum-veritas-data 945214989
%%linebreak <none>
%%barnumbers 0
L: 1/4
M: 3/4
N: Derived from pl-kozmzk--mzk-m-159--040_walczynski-franciszek--praeludia-organi-op-5-adagio.krn
Q: "40. Adagio."
%%staves {1 2}
V: 1 clef=treble
V: 2 clef=bass
K: Gb
[V:1] B,3 | 
[V:2] [G,D,][A,=D,][G,E,] & G,,F,,E,, | 
[V:1] D2C | 
[V:2] [=G,2_F,2][A,E,] & A,,3- | 
[V:1] CDE | 
[V:2] [A,_G,][A,F,][A,E,] & A,,B,,=C, | 
[V:1] G2F & E2D | 
[V:2] A,2-A,/_C/ & D,3 | 
[V:1] GAB- & D2G- | 
[V:2] B,2D & G,_F,2 | 
[V:1] Bc=c & G3- | 
[V:2] C2__B, & E,2__E, | 
[V:1] dBA & GG3/F/ | 
[V:2] B,DC- & D,3 | 
[V:1] G3 & D3 | 
[V:2] CB,2 & G,,3 | 
[V:1] G3- & FD/E/F | 
[V:2] DB,/C/D & G,,3- | 
[V:1] G3 & E3 | 
[V:2] CG,C & G,,3 | 
[V:1] G3- & __EC/D/E | 
[V:2] CA,/B,/C- & G,,3- | 
[V:1] !fermata!G3 & D3 |]  
[V:2] CB,2 & !fermata!G,,3 |]  


